src/assets/logo.svg

<?xml version="1.0" encoding="UTF-8"?>
<svg xmlns="http://www.w3.org/2000/svg" xmlns:xlink="http://www.w3.org/1999/xlink" width="253.5pt" height="73.499998pt" viewBox="0 0 253.5 73.499998" version="1.2">
<defs>
<g>
<symbol overflow="visible" id="glyph0-0">
<path style="stroke:none;" d="M 1.046875 -18.25 L 14.265625 -18.25 L 14.265625 0 L 1.046875 0 Z M 12.171875 -1.828125 L 12.171875 -16.421875 L 3.125 -16.421875 L 3.125 -1.828125 Z M 12.171875 -1.828125 "/>
</symbol>
<symbol overflow="visible" id="glyph0-1">
<path style="stroke:none;" d="M 28.03125 -18.25 L 21.875 0 L 19.84375 0 L 14.5 -15.5625 L 9.125 0 L 7.125 0 L 0.96875 -18.25 L 2.953125 -18.25 L 8.21875 -2.5625 L 13.671875 -18.25 L 15.46875 -18.25 L 20.84375 -2.484375 L 26.1875 -18.25 Z M 28.03125 -18.25 "/>
</symbol>
<symbol overflow="visible" id="glyph0-2">
<path style="stroke:none;" d="M 15.875 -1.671875 L 15.875 0 L 2.96875 0 L 2.96875 -18.25 L 15.484375 -18.25 L 15.484375 -16.578125 L 4.90625 -16.578125 L 4.90625 -10.09375 L 14.34375 -10.09375 L 14.34375 -8.453125 L 4.90625 -8.453125 L 4.90625 -1.671875 Z M 15.875 -1.671875 "/>
</symbol>
<symbol overflow="visible" id="glyph0-3">
<path style="stroke:none;" d="M 8 0.15625 C 6.644531 0.15625 5.347656 -0.0546875 4.109375 -0.484375 C 2.867188 -0.921875 1.90625 -1.5 1.21875 -2.21875 L 1.984375 -3.703125 C 2.640625 -3.046875 3.515625 -2.507812 4.609375 -2.09375 C 5.710938 -1.6875 6.84375 -1.484375 8 -1.484375 C 9.632812 -1.484375 10.859375 -1.78125 11.671875 -2.375 C 12.492188 -2.976562 12.90625 -3.757812 12.90625 -4.71875 C 12.90625 -5.445312 12.679688 -6.03125 12.234375 -6.46875 C 11.796875 -6.90625 11.253906 -7.238281 10.609375 -7.46875 C 9.972656 -7.707031 9.078125 -7.960938 7.921875 -8.234375 C 6.554688 -8.585938 5.460938 -8.925781 4.640625 -9.25 C 3.828125 -9.570312 3.128906 -10.0625 2.546875 -10.71875 C 1.960938 -11.375 1.671875 -12.269531 1.671875 -13.40625 C 1.671875 -14.320312 1.910156 -15.160156 2.390625 -15.921875 C 2.878906 -16.679688 3.628906 -17.285156 4.640625 -17.734375 C 5.648438 -18.179688 6.898438 -18.40625 8.390625 -18.40625 C 9.441406 -18.40625 10.460938 -18.257812 11.453125 -17.96875 C 12.453125 -17.6875 13.320312 -17.296875 14.0625 -16.796875 L 13.40625 -15.25 C 12.632812 -15.757812 11.816406 -16.140625 10.953125 -16.390625 C 10.085938 -16.640625 9.234375 -16.765625 8.390625 -16.765625 C 6.796875 -16.765625 5.59375 -16.457031 4.78125 -15.84375 C 3.976562 -15.226562 3.578125 -14.429688 3.578125 -13.453125 C 3.578125 -12.722656 3.796875 -12.132812 4.234375 -11.6875 C 4.679688 -11.25 5.238281 -10.910156 5.90625 -10.671875 C 6.570312 -10.441406 7.472656 -10.1875 8.609375 -9.90625 C 9.941406 -9.582031 11.019531 -9.257812 11.84375 -8.9375 C 12.675781 -8.613281 13.378906 -8.125 13.953125 -7.46875 C 14.523438 -6.820312 14.8125 -5.941406 14.8125 -4.828125 C 14.8125 -3.898438 14.5625 -3.054688 14.0625 -2.296875 C 13.570312 -1.546875 12.8125 -0.945312 11.78125 -0.5 C 10.757812 -0.0625 9.5 0.15625 8 0.15625 Z M 8 0.15625 "/>
</symbol>
<symbol overflow="visible" id="glyph0-4">
<path style="stroke:none;" d="M 6.515625 -16.578125 L 0.109375 -16.578125 L 0.109375 -18.25 L 14.859375 -18.25 L 14.859375 -16.578125 L 8.453125 -16.578125 L 8.453125 0 L 6.515625 0 Z M 6.515625 -16.578125 "/>
</symbol>
<symbol overflow="visible" id="glyph0-5">
<path style="stroke:none;" d="M 15.4375 0 L 11.265625 -5.875 C 10.796875 -5.820312 10.3125 -5.796875 9.8125 -5.796875 L 4.90625 -5.796875 L 4.90625 0 L 2.96875 0 L 2.96875 -18.25 L 9.8125 -18.25 C 12.132812 -18.25 13.957031 -17.691406 15.28125 -16.578125 C 16.601562 -15.472656 17.265625 -13.945312 17.265625 -12 C 17.265625 -10.570312 16.898438 -9.363281 16.171875 -8.375 C 15.453125 -7.394531 14.425781 -6.691406 13.09375 -6.265625 L 17.546875 0 Z M 9.75 -7.4375 C 11.5625 -7.4375 12.941406 -7.832031 13.890625 -8.625 C 14.847656 -9.425781 15.328125 -10.550781 15.328125 -12 C 15.328125 -13.476562 14.847656 -14.609375 13.890625 -15.390625 C 12.941406 -16.179688 11.5625 -16.578125 9.75 -16.578125 L 4.90625 -16.578125 L 4.90625 -7.4375 Z M 9.75 -7.4375 "/>
</symbol>
<symbol overflow="visible" id="glyph0-6">
<path style="stroke:none;" d="M 2.96875 -18.25 L 4.90625 -18.25 L 4.90625 0 L 2.96875 0 Z M 2.96875 -18.25 "/>
</symbol>
<symbol overflow="visible" id="glyph0-7">
<path style="stroke:none;" d="M 18.15625 -18.25 L 10.0625 0 L 8.15625 0 L 0.078125 -18.25 L 2.171875 -18.25 L 9.15625 -2.40625 L 16.1875 -18.25 Z M 18.15625 -18.25 "/>
</symbol>
<symbol overflow="visible" id="glyph0-8">
<path style="stroke:none;" d="M 14.421875 -4.875 L 4.25 -4.875 L 2.0625 0 L 0.046875 0 L 8.390625 -18.25 L 10.296875 -18.25 L 18.640625 0 L 16.609375 0 Z M 13.71875 -6.4375 L 9.34375 -16.25 L 4.953125 -6.4375 Z M 13.71875 -6.4375 "/>
</symbol>
<symbol overflow="visible" id="glyph0-9">
<path style="stroke:none;" d="M 2.96875 -18.25 L 4.90625 -18.25 L 4.90625 -1.671875 L 15.125 -1.671875 L 15.125 0 L 2.96875 0 Z M 2.96875 -18.25 "/>
</symbol>
<symbol overflow="visible" id="glyph0-10">
<path style="stroke:none;" d="M 9.234375 -6.3125 L 9.234375 0 L 7.328125 0 L 7.328125 -6.3125 L 0.03125 -18.25 L 2.09375 -18.25 L 8.34375 -8 L 14.609375 -18.25 L 16.53125 -18.25 Z M 9.234375 -6.3125 "/>
</symbol>
</g>
<clipPath id="clip1">
  <path d="M 0.609375 0 L 252.394531 0 L 252.394531 73.003906 L 0.609375 73.003906 Z M 0.609375 0 "/>
</clipPath>
<clipPath id="clip2">
  <path d="M 202.621094 26 L 210 26 L 210 68.945312 L 202.621094 68.945312 Z M 202.621094 26 "/>
</clipPath>
<clipPath id="clip3">
  <path d="M 208 4.753906 L 216 4.753906 L 216 18 L 208 18 Z M 208 4.753906 "/>
</clipPath>
<clipPath id="clip4">
  <path d="M 202.621094 7 L 210 7 L 210 20 L 202.621094 20 Z M 202.621094 7 "/>
</clipPath>
<clipPath id="clip5">
  <path d="M 202.621094 14 L 234 14 L 234 29 L 202.621094 29 Z M 202.621094 14 "/>
</clipPath>
<clipPath id="clip6">
  <path d="M 227 14 L 245.910156 14 L 245.910156 34 L 227 34 Z M 227 14 "/>
</clipPath>
<clipPath id="clip7">
  <path d="M 239 33 L 245.910156 33 L 245.910156 68.945312 L 239 68.945312 Z M 239 33 "/>
</clipPath>
<clipPath id="clip8">
  <path d="M 213 64 L 245.910156 64 L 245.910156 68.945312 L 213 68.945312 Z M 213 64 "/>
</clipPath>
</defs>
<g id="surface1">
<g clip-path="url(#clip1)" clip-rule="nonzero">
<rect x="0" y="0" width="253.5" height="73.499998" style="fill:rgb(21.958923%,44.309998%,75.689697%);fill-opacity:1;stroke:none;"/>
</g>
<g style="fill:rgb(100%,93.328857%,79.60968%);fill-opacity:1;">
  <use xlink:href="#glyph0-1" x="31.259088" y="35.999365"/>
</g>
<g style="fill:rgb(100%,93.328857%,79.60968%);fill-opacity:1;">
  <use xlink:href="#glyph0-2" x="59.187529" y="35.999365"/>
</g>
<g style="fill:rgb(100%,93.328857%,79.60968%);fill-opacity:1;">
  <use xlink:href="#glyph0-3" x="75.589795" y="35.999365"/>
</g>
<g style="fill:rgb(100%,93.328857%,79.60968%);fill-opacity:1;">
  <use xlink:href="#glyph0-4" x="90.583891" y="35.999365"/>
</g>
<g style="fill:rgb(100%,93.328857%,79.60968%);fill-opacity:1;">
  <use xlink:href="#glyph0-5" x="110.297615" y="35.999365"/>
</g>
<g style="fill:rgb(100%,93.328857%,79.60968%);fill-opacity:1;">
  <use xlink:href="#glyph0-6" x="128.108051" y="35.999365"/>
</g>
<g style="fill:rgb(100%,93.328857%,79.60968%);fill-opacity:1;">
  <use xlink:href="#glyph0-7" x="134.939945" y="35.999365"/>
</g>
<g style="fill:rgb(100%,93.328857%,79.60968%);fill-opacity:1;">
  <use xlink:href="#glyph0-2" x="152.098458" y="35.999365"/>
</g>
<g style="fill:rgb(100%,93.328857%,79.60968%);fill-opacity:1;">
  <use xlink:href="#glyph0-5" x="168.50073" y="35.999365"/>
</g>
<g style="fill:rgb(100%,93.328857%,79.60968%);fill-opacity:1;">
  <use xlink:href="#glyph0-5" x="90.679657" y="60.630619"/>
</g>
<g style="fill:rgb(100%,93.328857%,79.60968%);fill-opacity:1;">
  <use xlink:href="#glyph0-2" x="108.490094" y="60.630619"/>
</g>
<g style="fill:rgb(100%,93.328857%,79.60968%);fill-opacity:1;">
  <use xlink:href="#glyph0-8" x="124.892362" y="60.630619"/>
</g>
<g style="fill:rgb(100%,93.328857%,79.60968%);fill-opacity:1;">
  <use xlink:href="#glyph0-9" x="142.546347" y="60.630619"/>
</g>
<g style="fill:rgb(100%,93.328857%,79.60968%);fill-opacity:1;">
  <use xlink:href="#glyph0-4" x="156.862434" y="60.630619"/>
</g>
<g style="fill:rgb(100%,93.328857%,79.60968%);fill-opacity:1;">
  <use xlink:href="#glyph0-10" x="170.787359" y="60.630619"/>
</g>
<g clip-path="url(#clip2)" clip-rule="nonzero">
<path style=" stroke:none;fill-rule:nonzero;fill:rgb(100%,93.328857%,79.60968%);fill-opacity:1;" d="M 202.609375 68.871094 L 202.609375 26.945312 L 209.402344 30.507812 L 209.402344 68.871094 L 202.609375 68.871094 "/>
</g>
<g clip-path="url(#clip3)" clip-rule="nonzero">
<path style=" stroke:none;fill-rule:nonzero;fill:rgb(79.998779%,74.508667%,63.529968%);fill-opacity:1;" d="M 208.234375 14.449219 L 208.234375 4.828125 L 215.023438 8.25 L 215.023438 17.058594 L 208.234375 14.449219 "/>
</g>
<path style=" stroke:none;fill-rule:nonzero;fill:rgb(90.19928%,83.918762%,71.759033%);fill-opacity:1;" d="M 205.476562 16.019531 L 205.476562 6.398438 L 212.265625 9.824219 L 212.265625 18.628906 L 205.476562 16.019531 "/>
<g clip-path="url(#clip4)" clip-rule="nonzero">
<path style=" stroke:none;fill-rule:nonzero;fill:rgb(100%,93.328857%,79.60968%);fill-opacity:1;" d="M 202.609375 16.648438 L 202.609375 7.027344 L 209.402344 10.453125 L 209.402344 19.257812 L 202.609375 16.648438 "/>
</g>
<g clip-path="url(#clip5)" clip-rule="nonzero">
<path style=" stroke:none;fill-rule:nonzero;fill:rgb(90.19928%,83.918762%,71.759033%);fill-opacity:1;" d="M 202.609375 25.164062 L 227.367188 14.890625 L 233.167969 18.246094 L 209.402344 28.726562 L 202.609375 25.164062 "/>
</g>
<g clip-path="url(#clip6)" clip-rule="nonzero">
<path style=" stroke:none;fill-rule:nonzero;fill:rgb(100%,93.328857%,79.60968%);fill-opacity:1;" d="M 233.167969 18.246094 L 245.902344 33.445312 L 239.535156 33.445312 L 227.367188 14.890625 L 233.167969 18.246094 "/>
</g>
<g clip-path="url(#clip7)" clip-rule="nonzero">
<path style=" stroke:none;fill-rule:nonzero;fill:rgb(90.19928%,83.918762%,71.759033%);fill-opacity:1;" d="M 239.535156 33.445312 L 239.535156 68.871094 L 245.902344 68.871094 L 245.902344 33.445312 L 239.535156 33.445312 "/>
</g>
<g clip-path="url(#clip8)" clip-rule="nonzero">
<path style=" stroke:none;fill-rule:nonzero;fill:rgb(100%,93.328857%,79.60968%);fill-opacity:1;" d="M 213.75 68.871094 L 213.75 64.15625 L 245.902344 64.15625 L 245.902344 68.871094 L 213.75 68.871094 "/>
</g>
<path style=" stroke:none;fill-rule:nonzero;fill:rgb(100%,93.328857%,79.60968%);fill-opacity:1;" d="M 213.75 35.890625 L 213.75 57.972656 L 220.332031 57.972656 L 220.332031 38.683594 L 233.167969 34.210938 L 233.167969 57.972656 L 236.140625 57.972656 L 236.140625 30.300781 L 213.75 35.890625 "/>
</g>
</svg>

<svg xmlns="http://www.w3.org/2000/svg" xmlns:xlink="http://www.w3.org/1999/xlink" width="338" height="98" viewBox="0 0 253.5 73.5" version="1.2"><defs><symbol overflow="visible" id="b"><path d="M28.031-18.25L21.875 0h-2.031L14.5-15.563 9.125 0h-2L.969-18.25h1.984L8.22-2.562l5.453-15.688h1.797l5.375 15.766 5.343-15.766zm0 0"/></symbol><symbol overflow="visible" id="c"><path d="M15.875-1.672V0H2.969v-18.25h12.515v1.672H4.906v6.484h9.438v1.64H4.906v6.782zm0 0"/></symbol><symbol overflow="visible" id="d"><path d="M8 .156a11.78 11.78 0 01-3.89-.64C2.866-.922 1.905-1.5 1.218-2.22l.765-1.484c.657.656 1.532 1.195 2.625 1.61A9.737 9.737 0 008-1.485c1.633 0 2.86-.297 3.672-.891.82-.602 1.234-1.383 1.234-2.344 0-.726-.226-1.312-.672-1.75-.437-.437-.98-.77-1.625-1-.636-.238-1.53-.492-2.687-.765C6.555-8.586 5.46-8.926 4.64-9.25a5.429 5.429 0 01-2.094-1.469c-.586-.656-.875-1.55-.875-2.687 0-.914.238-1.754.719-2.516.488-.758 1.238-1.363 2.25-1.812 1.007-.446 2.257-.672 3.75-.672 1.05 0 2.07.148 3.062.437 1 .282 1.867.672 2.61 1.172l-.657 1.547a9.03 9.03 0 00-2.453-1.14 9.207 9.207 0 00-2.562-.376c-1.594 0-2.797.309-3.61.922-.804.617-1.203 1.414-1.203 2.39 0 .731.219 1.321.656 1.767.446.437 1.004.777 1.672 1.015.664.23 1.567.485 2.703.766 1.332.324 2.41.648 3.235.969a5.324 5.324 0 012.11 1.468c.57.649.858 1.528.858 2.64a4.5 4.5 0 01-.75 2.532c-.492.75-1.25 1.352-2.28 1.797C10.757-.062 9.5.156 8 .156zm0 0"/></symbol><symbol overflow="visible" id="e"><path d="M6.516-16.578H.109v-1.672h14.75v1.672H8.453V0H6.516zm0 0"/></symbol><symbol overflow="visible" id="f"><path d="M15.438 0l-4.172-5.875c-.47.055-.954.078-1.454.078H4.907V0H2.97v-18.25h6.844c2.32 0 4.144.559 5.468 1.672 1.32 1.105 1.985 2.633 1.985 4.578 0 1.43-.368 2.637-1.094 3.625-.719.98-1.746 1.684-3.078 2.11L17.547 0zM9.75-7.438c1.813 0 3.191-.394 4.14-1.187.958-.8 1.438-1.926 1.438-3.375 0-1.477-.48-2.61-1.437-3.39-.95-.79-2.329-1.188-4.141-1.188H4.906v9.14zm0 0"/></symbol><symbol overflow="visible" id="g"><path d="M2.969-18.25h1.937V0H2.97zm0 0"/></symbol><symbol overflow="visible" id="h"><path d="M18.156-18.25L10.063 0H8.155L.078-18.25h2.094L9.156-2.406l7.031-15.844zm0 0"/></symbol><symbol overflow="visible" id="i"><path d="M14.422-4.875H4.25L2.062 0H.047L8.39-18.25h1.906L18.64 0h-2.032zm-.703-1.563L9.344-16.25l-4.39 9.813zm0 0"/></symbol><symbol overflow="visible" id="j"><path d="M2.969-18.25h1.937v16.578h10.219V0H2.969zm0 0"/></symbol><symbol overflow="visible" id="k"><path d="M9.234-6.313V0H7.328v-6.313L.031-18.25h2.063L8.344-8l6.265-10.25h1.922zm0 0"/></symbol><clipPath id="a"><path d="M.61 0h251.785v73.004H.609zm0 0"/></clipPath><clipPath id="l"><path d="M202.621 26H210v42.945h-7.379zm0 0"/></clipPath><clipPath id="m"><path d="M208 4.754h8V18h-8zm0 0"/></clipPath><clipPath id="n"><path d="M202.621 7H210v13h-7.379zm0 0"/></clipPath><clipPath id="o"><path d="M202.621 14H234v15h-31.379zm0 0"/></clipPath><clipPath id="p"><path d="M227 14h18.91v20H227zm0 0"/></clipPath><clipPath id="q"><path d="M239 33h6.91v35.945H239zm0 0"/></clipPath><clipPath id="r"><path d="M213 64h32.91v4.945H213zm0 0"/></clipPath></defs><g clip-path="url(#a)"><path fill="#3871c1" d="M0 0h253.5v73.5H0z"/></g><use xlink:href="#b" x="31.259" y="35.999" fill="#ffeecb"/><use xlink:href="#c" x="59.188" y="35.999" fill="#ffeecb"/><use xlink:href="#d" x="75.59" y="35.999" fill="#ffeecb"/><use xlink:href="#e" x="90.584" y="35.999" fill="#ffeecb"/><use xlink:href="#f" x="110.298" y="35.999" fill="#ffeecb"/><use xlink:href="#g" x="128.108" y="35.999" fill="#ffeecb"/><use xlink:href="#h" x="134.94" y="35.999" fill="#ffeecb"/><use xlink:href="#c" x="152.098" y="35.999" fill="#ffeecb"/><use xlink:href="#f" x="168.501" y="35.999" fill="#ffeecb"/><use xlink:href="#f" x="90.68" y="60.631" fill="#ffeecb"/><use xlink:href="#c" x="108.49" y="60.631" fill="#ffeecb"/><use xlink:href="#i" x="124.892" y="60.631" fill="#ffeecb"/><use xlink:href="#j" x="142.546" y="60.631" fill="#ffeecb"/><use xlink:href="#e" x="156.862" y="60.631" fill="#ffeecb"/><use xlink:href="#k" x="170.787" y="60.631" fill="#ffeecb"/><g clip-path="url(#l)"><path d="M202.61 68.871V26.945l6.792 3.563V68.87h-6.793" fill="#ffeecb"/></g><g clip-path="url(#m)"><path d="M208.234 14.45V4.827l6.79 3.422v8.809l-6.79-2.61" fill="#ccbea2"/></g><path d="M205.477 16.02V6.398l6.789 3.426v8.805l-6.79-2.61" fill="#e6d6b7"/><g clip-path="url(#n)"><path d="M202.61 16.648v-9.62l6.792 3.425v8.805l-6.793-2.61" fill="#ffeecb"/></g><g clip-path="url(#o)"><path d="M202.61 25.164l24.757-10.273 5.801 3.355-23.766 10.48-6.793-3.562" fill="#e6d6b7"/></g><g clip-path="url(#p)"><path d="M233.168 18.246l12.734 15.2h-6.367L227.367 14.89l5.801 3.355" fill="#ffeecb"/></g><g clip-path="url(#q)"><path d="M239.535 33.445v35.426h6.367V33.445h-6.367" fill="#e6d6b7"/></g><g clip-path="url(#r)"><path d="M213.75 68.871v-4.715h32.152v4.715H213.75" fill="#ffeecb"/></g><path d="M213.75 35.89v22.083h6.582v-19.29l12.836-4.472v23.762h2.973V30.3l-22.391 5.59" fill="#ffeecb"/></svg>
